X: 22618
T: Lady's Cup Of Tea, The
R: reel
M: 4/4
K: Edorian
B2eB dBBA|BcBA FAA2|B2eB dBBA|BcBA FEED|
B2eB dBBA|BcBA FAA2|B2eB dBBA|BcBA FEE2||
fede faa2|fbba faae|fede faa2|bfaf feeg|
fede faa2|fbba faae|fede fefa|bfaf feed||

